apps/blog/src/assets/icons/linkedIn.svg

<svg width="1em" height="1em" viewBox="0 0 24 24" fill="none" xmlns="http://www.w3.org/2000/svg">
  <path d="M12 0C5.3736 0 0 5.3736 0 12C0 18.6264 5.3736 24 12 24C18.6264 24 24 18.6264 24 12C24 5.3736 18.6264 0 12 0ZM8.51294 18.1406H5.59039V9.34808H8.51294V18.1406ZM7.05176 8.14746H7.03271C6.052 8.14746 5.41772 7.47235 5.41772 6.6286C5.41772 5.76581 6.07141 5.10938 7.07117 5.10938C8.07092 5.10938 8.68616 5.76581 8.7052 6.6286C8.7052 7.47235 8.07092 8.14746 7.05176 8.14746ZM19.051 18.1406H16.1288V13.4368C16.1288 12.2547 15.7057 11.4485 14.6483 11.4485C13.8409 11.4485 13.3601 11.9923 13.1488 12.5173C13.0715 12.7051 13.0527 12.9677 13.0527 13.2305V18.1406H10.1303C10.1303 18.1406 10.1686 10.173 10.1303 9.34808H13.0527V10.593C13.441 9.9939 14.1359 9.14172 15.6865 9.14172C17.6093 9.14172 19.051 10.3984 19.051 13.099V18.1406Z" fill="currentColor"/>
</svg>

<svg xmlns="http://www.w3.org/2000/svg" fill="none" viewBox="0 0 24 24"><path fill="currentColor" d="M12 0C5.374 0 0 5.374 0 12s5.374 12 12 12 12-5.374 12-12S18.626 0 12 0M8.513 18.14H5.59V9.349h2.923zM7.052 8.148h-.02c-.98 0-1.614-.675-1.614-1.518 0-.863.653-1.52 1.653-1.52s1.615.657 1.634 1.52c0 .843-.634 1.518-1.653 1.518m11.999 9.994h-2.922v-4.704c0-1.182-.423-1.989-1.48-1.989-.808 0-1.289.544-1.5 1.07-.077.187-.096.45-.096.712v4.91H10.13s.039-7.967 0-8.792h2.923v1.245c.388-.6 1.083-1.451 2.633-1.451 1.923 0 3.365 1.256 3.365 3.957z"/></svg>
